packages/foundations/assets/icons/functional/images/social/crown_24.svg

<svg width="24" height="24" viewBox="0 0 24 24" fill="none" xmlns="http://www.w3.org/2000/svg">
<g clip-path="url(#clip0_187_332)">
<path fill-rule="evenodd" clip-rule="evenodd" d="M19.4994 20C20.0517 20 20.4994 20.4478 20.4994 21C20.4994 21.5129 20.0493 22 19.4994 22H4.49943C3.94715 22 3.49943 21.5523 3.49943 21C3.49943 20.4872 3.92593 20 4.49943 20H19.4994ZM11.105 2.55273C11.4541 1.85447 12.4165 1.81772 12.8302 2.44248L15.4464 7.65804L20.5522 5.10562C21.2206 4.77143 22.0671 5.27952 21.9974 6.06957C21.4234 9.30451 20.752 13.0076 19.9833 17.1788C19.9041 17.6147 19.5495 17.9414 19.1187 17.9929L4.99943 17.9999C4.55642 17.9999 4.17152 17.7095 4.04385 17.2949L2.01556 6.17893C1.87485 5.40503 2.63514 4.79484 3.34559 5.06148L8.55143 7.65804L11.105 2.55273ZM11.9994 5.23604L9.89386 9.44725C9.66452 9.90595 9.1302 10.1114 8.65953 9.94061L4.34043 7.78804L5.83343 15.999H18.1644L19.6574 7.78804L15.4466 9.89447C15.0232 10.1062 14.403 9.99994 14.1632 9.54855C13.5775 8.39909 12.8563 6.96159 11.9994 5.23604Z" fill="#1A1C1F"/>
</g>
<defs>
<clipPath id="clip0_187_332">
<rect width="24" height="24" fill="white"/>
</clipPath>
</defs>
</svg>

<svg xmlns="http://www.w3.org/2000/svg" width="24" height="24" fill="none"><g clip-path="url(#a)"><path fill="#1A1C1F" fill-rule="evenodd" d="M19.5 20a1 1 0 0 1 1 1c0 .513-.45 1-1 1h-15a1 1 0 0 1-1-1c0-.513.426-1 1-1zM11.104 2.553a1 1 0 0 1 1.725-.11l2.616 5.215 5.106-2.552c.669-.335 1.515.174 1.445.964q-.86 4.853-2.014 11.109a1 1 0 0 1-.864.814L4.999 18a1 1 0 0 1-.955-.705L2.016 6.179a1 1 0 0 1 1.33-1.118L8.55 7.658zm.894 2.683L9.894 9.447a1 1 0 0 1-1.234.494L4.34 7.788l1.493 8.211h12.331l1.493-8.211-4.21 2.106c-.424.212-1.044.106-1.284-.345A482 482 0 0 1 12 5.236" clip-rule="evenodd"/></g><defs><clipPath id="a"><path fill="#fff" d="M0 0h24v24H0z"/></clipPath></defs></svg>
